src/assets/media/home/dots_mentors.svg

<svg width="177" height="12" viewBox="0 0 177 12" fill="none" xmlns="http://www.w3.org/2000/svg">
<path d="M2.69295 6.88612C1.33302 7.12473 0.424003 8.42061 0.662616 9.78055C0.901228 11.1405 2.19711 12.0495 3.55705 11.8109L2.69295 6.88612ZM173.287 11.8245C174.655 12.0152 175.918 11.0612 176.108 9.69367C176.299 8.32618 175.345 7.06306 173.978 6.87242L173.287 11.8245ZM3.55705 11.8109C4.72226 11.6064 6.19313 11.3445 7.98398 11.0407L7.14769 6.11109C5.33852 6.41801 3.84511 6.68396 2.69295 6.88612L3.55705 11.8109ZM16.8337 9.64944C19.4829 9.26643 22.4479 8.8674 25.7228 8.47212L25.1236 3.50815C21.8076 3.9084 18.8038 4.31263 16.1183 4.70089L16.8337 9.64944ZM34.6317 7.49532C37.4442 7.21716 40.4247 6.95018 43.571 6.70246L43.1786 1.71788C39.9983 1.96828 36.9846 2.23823 34.1396 2.5196L34.6317 7.49532ZM52.5363 6.08214C55.4089 5.91024 58.3952 5.75681 61.494 5.62655L61.284 0.63096C58.1553 0.76248 55.1394 0.917418 52.2377 1.09107L52.5363 6.08214ZM70.4759 5.32585C73.3864 5.25294 76.3829 5.20134 79.4647 5.17426L79.4207 0.174458C76.3117 0.201776 73.288 0.253831 70.3507 0.327419L70.4759 5.32585ZM88.4501 5.16602C89.9303 5.17616 91.4282 5.19205 92.9435 5.21398L93.0159 0.214506C91.4878 0.192389 89.9773 0.176367 88.4843 0.166133L88.4501 5.16602ZM92.9435 5.21398C94.6627 5.23886 96.3476 5.26838 97.999 5.30222L98.1014 0.303274C96.4399 0.269219 94.745 0.239532 93.0159 0.214506L92.9435 5.21398ZM108.099 5.57457C111.626 5.69348 114.979 5.83255 118.166 5.98801L118.41 0.993948C115.197 0.837244 111.82 0.697149 108.268 0.577409L108.099 5.57457ZM128.226 6.56413C131.824 6.80235 135.171 7.06028 138.286 7.33021L138.717 2.34888C135.569 2.076 132.188 1.81549 128.557 1.57506L128.226 6.56413ZM148.299 8.31513C152.041 8.72942 155.347 9.15006 158.274 9.55411L158.958 4.60108C155.991 4.19144 152.64 3.76514 148.849 3.34549L148.299 8.31513ZM168.246 11.0524C170.168 11.3571 171.843 11.6232 173.287 11.8245L173.978 6.87242C172.59 6.67893 170.967 6.42131 169.029 6.11408L168.246 11.0524Z" fill="#067DE1"/>
</svg>

<svg xmlns="http://www.w3.org/2000/svg" fill="none" width="177" height="12" viewBox="0 0 177 12"><path d="M2.693 6.886a2.5 2.5 0 0 0 .864 4.925l-.864-4.925Zm170.594 4.939a2.499 2.499 0 1 0 .691-4.953l-.691 4.953ZM3.557 11.81c1.165-.205 2.636-.466 4.427-.77l-.836-4.93c-1.81.307-3.303.573-4.455.775l.864 4.925Zm13.277-2.162a381.9 381.9 0 0 1 8.889-1.177l-.6-4.964c-3.315.4-6.32.805-9.005 1.193l.716 4.948Zm17.798-2.154c2.812-.278 5.793-.545 8.939-.793l-.392-4.984c-3.18.25-6.194.52-9.04.802l.493 4.975Zm17.904-1.413a505.07 505.07 0 0 1 8.958-.455L61.284.63c-3.129.131-6.145.286-9.046.46l.298 4.991Zm17.94-.756c2.91-.073 5.907-.125 8.989-.152l-.044-5c-3.11.028-6.133.08-9.07.153l.125 4.999Zm17.974-.16c1.48.01 2.978.026 4.493.048l.073-5a594.882 594.882 0 0 0-4.532-.048l-.034 5Zm4.493.048c1.72.025 3.405.054 5.056.088l.102-4.999a844.736 844.736 0 0 0-5.085-.088l-.073 4.999Zm15.156.36c3.527.12 6.88.259 10.067.414l.244-4.994a674.4 674.4 0 0 0-10.142-.417l-.169 4.998Zm20.127.99c3.598.238 6.945.496 10.06.766l.431-4.981a500.688 500.688 0 0 0-10.16-.774l-.331 4.99Zm20.073 1.751c3.742.414 7.048.835 9.975 1.24l.684-4.954a375.96 375.96 0 0 0-10.109-1.256l-.55 4.97Zm19.947 2.737c1.922.305 3.597.571 5.041.773l.691-4.953c-1.388-.193-3.011-.45-4.949-.758l-.783 4.938Z" fill="#067DE1"/></svg>
